Origami/48x48/apps/armagetronad.svg

<svg width="48" height="48" version="1.1" viewBox="0 0 48 48" xmlns="http://www.w3.org/2000/svg">
 <path d="m24 4a20 20 0 0 0 -20 20 20 20 0 0 0 20 20 20 20 0 0 0 20 -20 20 20 0 0 0 -20 -20z" style="fill:#e3ac33"/>
 <path d="m4.0215 24.418a20 20 0 0 0 -0.0215 0.582 20 20 0 0 0 20 20 20 20 0 0 0 20 -20 20 20 0 0 0 -0.021 -0.418 20 20 0 0 1 -19.979 19.418 20 20 0 0 1 -19.978 -19.582z" opacity=".2"/>
 <path d="m24 4a20 20 0 0 0 -20 20 20 20 0 0 0 0.0215 0.418 20 20 0 0 1 19.978 -19.418 20 20 0 0 1 19.979 19.582 20 20 0 0 0 0.021 -0.582 20 20 0 0 0 -20 -20z" fill="#ffffff" opacity=".2"/>
 <path d="m24.359375 10.017578c-0.134705 0.401362-0.260245 0.753638-0.408203 1.242188-0.490352 1.619115-0.956572 3.609157-0.951172 4.736328 0.005162 1.076457 0.472293 2.987619 0.958984 4.541015 0.124764 0.398157 0.189316 0.552707 0.294922 0.863282 0.143692-0.290627 0.208449-0.448767 0.394532-0.804688 0.790336-1.511679 1.779329-3.255051 2.884765-4.371094 1.1411-1.152095 2.93771-2.196322 4.498047-3.03125 0.198647-0.106294 0.327147-0.162264 0.515625-0.259765a14 14 0 0 0 -8.1875 -2.916016zm-2.142578 0.113281a14 14 0 0 0 -7.851563 3.720703c0.187102 0.374679 0.346946 0.706472 0.585938 1.152344 0.796098 1.485232 1.866772 3.220746 2.6875 4.048828 0.814643 0.821934 2.611448 1.956697 4.15625 2.806641 0.236296 0.130009 0.398909 0.207118 0.613281 0.320313-0.122996-0.357645-0.209429-0.572633-0.357422-1.044922-0.510065-1.627771-1.043281-3.560038-1.050781-5.13086-0.007775-1.621534 0.524167-3.630512 1.037109-5.324218 0.065324-0.215694 0.115327-0.346549 0.179688-0.548829zm11.929687 4.232422c-0.380438 0.189211-0.719394 0.351631-1.171875 0.59375-1.491618 0.798155-3.228272 1.874933-4.021484 2.675781-0.757519 0.764821-1.778929 2.446112-2.533203 3.888672-0.192693 0.368564-0.25578 0.522836-0.400391 0.816407 0.297465-0.100283 0.497971-0.178147 0.845703-0.28711 1.627771-0.510065 3.560038-1.043281 5.13086-1.050781 1.621534-0.007775 3.63051 0.524167 5.324218 1.037109 0.215694 0.065324 0.346549 0.115327 0.548829 0.179688a14 14 0 0 0 -3.722657 -7.853516zm-21.21289 1.089844a14 14 0 0 0 -2.916016 8.185547c0.395799 0.132055 0.740934 0.252921 1.222656 0.398437 1.613144 0.487291 3.597787 0.957691 4.763672 0.962891 1.157234 0.005155 3.230487-0.463739 4.923828-0.955078 0.181-0.052519 0.293382-0.093665 0.460938-0.144531-0.197187-0.104422-0.340911-0.171444-0.554688-0.289063-1.609066-0.885303-3.459109-1.983943-4.615234-3.15039-1.150025-1.160314-2.20067-2.958515-3.033203-4.511719-0.102816-0.191818-0.157468-0.313911-0.251953-0.496094zm19.070312 7.546875c-1.076457 0.005162-2.987619 0.472293-4.541015 0.958984-0.363846 0.114012-0.561037 0.191219-0.861329 0.292969 0.281823 0.139695 0.47902 0.227239 0.802735 0.396485 1.511679 0.790337 3.255051 1.779329 4.371094 2.884765 1.152095 1.1411 2.196322 2.93771 3.03125 4.498047 0.106294 0.198647 0.162264 0.327147 0.259765 0.515625a14 14 0 0 0 2.916016 -8.1875c-0.401362-0.134705-0.753638-0.260245-1.242188-0.408203-1.619115-0.490352-3.609157-0.956572-4.736328-0.951172zm-9.919922 2.777344c-0.213528 0.065679-0.363008 0.119415-0.597656 0.1875-1.763785 0.511778-3.847927 1.042456-5.490234 1.035156-1.633656-0.007275-3.648967-0.537283-5.335938-1.046875-0.208615-0.063018-0.333423-0.111765-0.529297-0.173828a14 14 0 0 0 3.720703 7.855469c0.374679-0.187102 0.706472-0.346946 1.152344-0.585938 1.485232-0.796098 3.220745-1.866772 4.048828-2.6875 0.821933-0.814643 1.956697-2.611448 2.806641-4.15625 0.090789-0.165013 0.144019-0.276367 0.224609-0.427734zm3.751954 0.326172c0.045105 0.148601 0.082173 0.249097 0.128906 0.410156 0.511778 1.763785 1.042456 3.847927 1.035156 5.490234-0.007275 1.633656-0.537283 3.648967-1.046875 5.335938-0.063018 0.208615-0.111765 0.333423-0.173828 0.529297a14 14 0 0 0 7.857422 -3.722657c-0.189211-0.380438-0.351631-0.719395-0.59375-1.171875-0.798156-1.491618-1.874933-3.228272-2.675781-4.021484-0.764821-0.75752-2.446112-1.778929-3.888672-2.533203-0.265812-0.138972-0.409739-0.200066-0.642578-0.316406zm-1.935547 0.507812c-0.101976 0.193207-0.171465 0.340949-0.289063 0.554688-0.885303 1.609066-1.983943 3.459109-3.15039 4.615234-1.160314 1.150025-2.958515 2.20067-4.511719 3.033203-0.191818 0.102816-0.313911 0.157468-0.496094 0.251953a14 14 0 0 0 8.185547 2.916016c0.132055-0.395799 0.252921-0.740933 0.398437-1.222656 0.487291-1.613144 0.957691-3.597787 0.962891-4.763672 0.005155-1.157234-0.463739-3.230487-0.955078-4.923828-0.052519-0.181-0.094453-0.29682-0.144531-0.460938z" style="fill:#383838"/>
 <circle cx="24" cy="25" r="5" style="opacity:.2"/>
 <circle cx="24" cy="24" r="5" style="fill:#cccccc"/>
</svg>

<svg xmlns="http://www.w3.org/2000/svg" width="48" height="48" version="1.1" viewBox="0 0 48 48">
 <path style="fill:#e3ac33" d="m24 4a20 20 0 0 0 -20 20 20 20 0 0 0 20 20 20 20 0 0 0 20 -20 20 20 0 0 0 -20 -20z"/>
 <path opacity=".2" d="m4.0215 24.418a20 20 0 0 0 -0.0215 0.582 20 20 0 0 0 20 20 20 20 0 0 0 20 -20 20 20 0 0 0 -0.021 -0.418 20 20 0 0 1 -19.979 19.418 20 20 0 0 1 -19.978 -19.582z"/>
 <path fill="#ffffff" opacity=".2" d="m24 4a20 20 0 0 0 -20 20 20 20 0 0 0 0.0215 0.418 20 20 0 0 1 19.978 -19.418 20 20 0 0 1 19.979 19.582 20 20 0 0 0 0.021 -0.582 20 20 0 0 0 -20 -20z"/>
 <path style="fill:#383838" d="M 24.359375 10.017578 C 24.22467 10.41894 24.09913 10.771216 23.951172 11.259766 C 23.46082 12.878881 22.9946 14.868923 23 15.996094 C 23.005162 17.072551 23.472293 18.983713 23.958984 20.537109 C 24.083748 20.935266 24.1483 21.089816 24.253906 21.400391 C 24.397598 21.109764 24.462355 20.951624 24.648438 20.595703 C 25.438774 19.084024 26.427767 17.340652 27.533203 16.224609 C 28.674303 15.072514 30.470913 14.028287 32.03125 13.193359 C 32.229897 13.087065 32.358397 13.031095 32.546875 12.933594 A 14 14 0 0 0 24.359375 10.017578 z M 22.216797 10.130859 A 14 14 0 0 0 14.365234 13.851562 C 14.552336 14.226241 14.71218 14.558034 14.951172 15.003906 C 15.74727 16.489138 16.817944 18.224652 17.638672 19.052734 C 18.453315 19.874668 20.25012 21.009431 21.794922 21.859375 C 22.031218 21.989384 22.193831 22.066493 22.408203 22.179688 C 22.285207 21.822043 22.198774 21.607055 22.050781 21.134766 C 21.540716 19.506995 21.0075 17.574728 21 16.003906 C 20.992225 14.382372 21.524167 12.373394 22.037109 10.679688 C 22.102433 10.463994 22.152436 10.333139 22.216797 10.130859 z M 34.146484 14.363281 C 33.766046 14.552492 33.42709 14.714912 32.974609 14.957031 C 31.482991 15.755186 29.746337 16.831964 28.953125 17.632812 C 28.195606 18.397633 27.174196 20.078924 26.419922 21.521484 C 26.227229 21.890048 26.164142 22.04432 26.019531 22.337891 C 26.316996 22.237608 26.517502 22.159744 26.865234 22.050781 C 28.493005 21.540716 30.425272 21.0075 31.996094 21 C 33.617628 20.992225 35.626604 21.524167 37.320312 22.037109 C 37.536006 22.102433 37.666861 22.152436 37.869141 22.216797 A 14 14 0 0 0 34.146484 14.363281 z M 12.933594 15.453125 A 14 14 0 0 0 10.017578 23.638672 C 10.413377 23.770727 10.758512 23.891593 11.240234 24.037109 C 12.853378 24.5244 14.838021 24.9948 16.003906 25 C 17.16114 25.005155 19.234393 24.536261 20.927734 24.044922 C 21.108734 23.992403 21.221116 23.951257 21.388672 23.900391 C 21.191485 23.795969 21.047761 23.728947 20.833984 23.611328 C 19.224918 22.726025 17.374875 21.627385 16.21875 20.460938 C 15.068725 19.300624 14.01808 17.502423 13.185547 15.949219 C 13.082731 15.757401 13.028079 15.635308 12.933594 15.453125 z M 32.003906 23 C 30.927449 23.005162 29.016287 23.472293 27.462891 23.958984 C 27.099045 24.072996 26.901854 24.150203 26.601562 24.251953 C 26.883385 24.391648 27.080582 24.479192 27.404297 24.648438 C 28.915976 25.438775 30.659348 26.427767 31.775391 27.533203 C 32.927486 28.674303 33.971713 30.470913 34.806641 32.03125 C 34.912935 32.229897 34.968905 32.358397 35.066406 32.546875 A 14 14 0 0 0 37.982422 24.359375 C 37.58106 24.22467 37.228784 24.09913 36.740234 23.951172 C 35.121119 23.46082 33.131077 22.9946 32.003906 23 z M 22.083984 25.777344 C 21.870456 25.843023 21.720976 25.896759 21.486328 25.964844 C 19.722543 26.476622 17.638401 27.0073 15.996094 27 C 14.362438 26.992725 12.347127 26.462717 10.660156 25.953125 C 10.451541 25.890107 10.326733 25.84136 10.130859 25.779297 A 14 14 0 0 0 13.851562 33.634766 C 14.226241 33.447664 14.558034 33.28782 15.003906 33.048828 C 16.489138 32.25273 18.224651 31.182056 19.052734 30.361328 C 19.874667 29.546685 21.009431 27.74988 21.859375 26.205078 C 21.950164 26.040065 22.003394 25.928711 22.083984 25.777344 z M 25.835938 26.103516 C 25.881043 26.252117 25.918111 26.352613 25.964844 26.513672 C 26.476622 28.277457 27.0073 30.361599 27 32.003906 C 26.992725 33.637562 26.462717 35.652873 25.953125 37.339844 C 25.890107 37.548459 25.84136 37.673267 25.779297 37.869141 A 14 14 0 0 0 33.636719 34.146484 C 33.447508 33.766046 33.285088 33.427089 33.042969 32.974609 C 32.244813 31.482991 31.168036 29.746337 30.367188 28.953125 C 29.602367 28.195605 27.921076 27.174196 26.478516 26.419922 C 26.212704 26.28095 26.068777 26.219856 25.835938 26.103516 z M 23.900391 26.611328 C 23.798415 26.804535 23.728926 26.952277 23.611328 27.166016 C 22.726025 28.775082 21.627385 30.625125 20.460938 31.78125 C 19.300624 32.931275 17.502423 33.98192 15.949219 34.814453 C 15.757401 34.917269 15.635308 34.971921 15.453125 35.066406 A 14 14 0 0 0 23.638672 37.982422 C 23.770727 37.586623 23.891593 37.241489 24.037109 36.759766 C 24.5244 35.146622 24.9948 33.161979 25 31.996094 C 25.005155 30.83886 24.536261 28.765607 24.044922 27.072266 C 23.992403 26.891266 23.950469 26.775446 23.900391 26.611328 z"/>
 <circle style="opacity:0.2" cx="24" cy="25" r="5"/>
 <circle style="fill:#cccccc" cx="24" cy="24" r="5"/>
</svg>
